icons/label-arrow-up.svg

<svg xmlns="http://www.w3.org/2000/svg" width="24" height="24" viewBox="0 0 24 24">
  <path d="M15.0924635,4 C15.6691887,4 16.2178408,4.24896086 16.5976169,4.68299078 L21.8476169,10.6829908 C22.5074124,11.4370428 22.5074124,12.5629572 21.8476169,13.3170092 L16.5976169,19.3170092 C16.2178408,19.7510391 15.6691887,20 15.0924635,20 L4,20 C2.8954305,20 2,19.1045695 2,18 L2,6 C2,4.8954305 2.8954305,4 4,4 L15.0924635,4 Z M10,8 L9.98082404,8.00018018 L9.94096861,8.0017331 C9.93088722,8.00232561 9.92081308,8.00307004 9.90996805,8.00399798 L9.90996805,8.00399798 L9.85153313,8.0110178 C9.83405099,8.01362808 9.81662474,8.01670217 9.7992059,8.02016515 C9.77725392,8.0246398 9.75556352,8.02983363 9.73400703,8.03584514 C9.71853672,8.04009773 9.70314866,8.04472872 9.68826359,8.04954668 C9.66820232,8.05612249 9.6484208,8.06331574 9.62866398,8.07122549 L9.62866398,8.07122549 L9.57690085,8.09365378 C9.5561086,8.10337664 9.53570605,8.11379392 9.5159379,8.12467117 L9.5159379,8.12467117 L9.47933981,8.14606743 C9.45372505,8.1617187 9.42886931,8.17849009 9.40469339,8.19633458 L9.40469339,8.19633458 L9.38,8.215 L9.37,8.224 L9.29289322,8.29289322 L6.29289322,11.2928932 L6.20970461,11.3871006 C5.90467972,11.7793918 5.93240926,12.3466228 6.29289322,12.7071068 C6.68341751,13.0976311 7.31658249,13.0976311 7.70710678,12.7071068 L7.70710678,12.7071068 L9,11.415 L9,15 L9.00672773,15.1166211 C9.06449284,15.6139598 9.48716416,16 10,16 C10.5522847,16 11,15.5522847 11,15 L11,15 L11,11.415 L12.2928932,12.7071068 L12.3871006,12.7902954 C12.7793918,13.0953203 13.3466228,13.0675907 13.7071068,12.7071068 C14.0976311,12.3165825 14.0976311,11.6834175 13.7071068,11.2928932 L13.7071068,11.2928932 L10.7071068,8.29289322 L10.625449,8.21968877 C10.6225624,8.2173721 10.6196628,8.21507113 10.6128994,8.20970461 C10.6070733,8.20517454 10.6012086,8.20071786 10.5951593,8.19631351 C10.5711307,8.17849009 10.546275,8.1617187 10.5207088,8.14599545 C10.5086131,8.13860692 10.4963944,8.13149883 10.484277,8.12487577 C10.4642939,8.11379392 10.4438914,8.10337664 10.4232215,8.09367336 L10.4232215,8.09367336 L10.3710585,8.07110396 C10.3515792,8.06331574 10.3317977,8.05612249 10.3121425,8.04973809 C10.2968513,8.04472872 10.2814633,8.04009773 10.2658396,8.03572097 C10.2444365,8.02983363 10.2227461,8.0246398 10.2007258,8.02024007 C10.1833753,8.01670217 10.165949,8.01362808 10.1489612,8.01101934 L10.1489612,8.01101934 L10.081,8.003 L10.03,8.001 L10.019,8.001 L10,8 L10,8 Z"/>
</svg>

<svg xmlns="http://www.w3.org/2000/svg" viewBox="0 0 24 24">
  <path d="M15.1 4a2 2 0 0 1 1.5.68l5.25 6a2 2 0 0 1 0 2.64l-5.25 6a2 2 0 0 1-1.5.68H4a2 2 0 0 1-2-2V6c0-1.1.9-2 2-2h11.1zM10 8h-.09l-.06.01a1.1 1.1 0 0 0-.22.06l-.05.02-.06.03-.04.03-.08.05-.02.02h-.01l-.08.07-3 3-.08.1a1 1 0 0 0 1.5 1.32L9 11.4v3.71a1 1 0 0 0 2-.12V11.4l1.3 1.3.09.08a1 1 0 0 0 1.32-1.5l-3-3-.08-.07a3.01 3.01 0 0 0-.15-.1 1.02 1.02 0 0 0-.06-.03l-.05-.02a.95.95 0 0 0-.22-.06H10z"/>
</svg>
